X: 3352
T: CARLTON HORNPIPE
R: Hornpipe.
%R: hornpipe, reel
B: James Kerr "Merry Melodies" v.3 p.38 #353
Z: 2016 John Chambers <jc:trillian.mit.edu>
M: C
L: 1/8
K: A
(ed) |\
cAce dBdf | ec a4 (ec) |\
dbgd caec | (3BcB (3AGF E2 (ed) |\
cAce dBdf | ec a4 (ec) |\
Bbge ^dBAF | E2e2 E2 :|
|: (3efe) |\
dcBA GBed | cdBc A2 (3(efe) |\
dcdB cBcA | (3GAB (3AGF E2 (ed) |\
cAce dBdf | ecea gegb |\
aefd cBAG | A2a2 A2 :|

%%sep 1 1 500
%%sep 1 1 500

